SVG_Azure_All/Azure Spring Cloud.svg

<?xml version="1.0" encoding="UTF-8" standalone="no"?>
<!-- Generated by Microsoft Visio, SVG Export Azure Spring Cloud.svg Page-1 -->

<svg
   xmlns:dc="http://purl.org/dc/elements/1.1/"
   xmlns:cc="http://creativecommons.org/ns#"
   xmlns:rdf="http://www.w3.org/1999/02/22-rdf-syntax-ns#"
   xmlns:svg="http://www.w3.org/2000/svg"
   xmlns="http://www.w3.org/2000/svg"
   xmlns:xlink="http://www.w3.org/1999/xlink"
   xmlns:sodipodi="http://sodipodi.sourceforge.net/DTD/sodipodi-0.dtd"
   xmlns:inkscape="http://www.inkscape.org/namespaces/inkscape"
   width="0.78735721in"
   height="0.78743637in"
   viewBox="0 0 56.689786 56.695697"
   xml:space="preserve"
   class="st10"
   version="1.1"
   id="svg119"
   sodipodi:docname="Azure Spring Cloud.svg"
   style="font-size:12px;overflow:visible;color-interpolation-filters:sRGB;fill:none;fill-rule:evenodd;stroke-linecap:square;stroke-miterlimit:3"
   inkscape:version="0.92.5 (2060ec1f9f, 2020-04-08)"><metadata
   id="metadata123"><rdf:RDF><cc:Work
       rdf:about=""><dc:format>image/svg+xml</dc:format><dc:type
         rdf:resource="http://purl.org/dc/dcmitype/StillImage" /></cc:Work></rdf:RDF></metadata><sodipodi:namedview
   pagecolor="#ffffff"
   bordercolor="#666666"
   borderopacity="1"
   objecttolerance="10"
   gridtolerance="10"
   guidetolerance="10"
   inkscape:pageopacity="0"
   inkscape:pageshadow="2"
   inkscape:window-width="640"
   inkscape:window-height="480"
   id="namedview121"
   showgrid="false"
   inkscape:zoom="1.6696778"
   inkscape:cx="37.79508"
   inkscape:cy="25.319606"
   inkscape:window-x="0"
   inkscape:window-y="0"
   inkscape:window-maximized="0"
   inkscape:current-layer="svg119" />
	<style
   type="text/css"
   id="style2">
	<![CDATA[
		.st1 {fill:url(#grad0-6);stroke:none;stroke-linecap:butt;stroke-width:15.3}
		.st2 {fill:url(#grad0-10);stroke:none;stroke-linecap:butt;stroke-width:15.3}
		.st3 {fill:url(#grad0-14);stroke:none;stroke-linecap:butt;stroke-width:15.3}
		.st4 {fill:url(#grad0-18);stroke:none;stroke-linecap:butt;stroke-width:15.3}
		.st5 {fill:url(#grad0-25);stroke:none;stroke-linecap:butt;stroke-width:15.3}
		.st6 {fill:url(#grad0-32);stroke:none;stroke-linecap:butt;stroke-width:15.3}
		.st7 {fill:url(#grad0-36);stroke:none;stroke-linecap:butt;stroke-width:15.3}
		.st8 {fill:#5fb832;stroke:none;stroke-linecap:butt;stroke-width:15.3}
		.st9 {fill:#ffffff;stroke:none;stroke-linecap:butt;stroke-width:15.3}
		.st10 {fill:none;fill-rule:evenodd;font-size:12px;overflow:visible;stroke-linecap:square;stroke-miterlimit:3}
	]]>
	</style>

	<defs
   id="Patterns_And_Gradients">
		<linearGradient
   id="grad0-6"
   x1="0"
   y1="49.32"
   x2="56.69"
   y2="49.32"
   gradientUnits="userSpaceOnUse">
			<stop
   offset="0"
   stop-color="#008bf1"
   stop-opacity="1"
   id="stop4" />
			<stop
   offset="0.22"
   stop-color="#0086ec"
   stop-opacity="1"
   id="stop6" />
			<stop
   offset="0.495"
   stop-color="#0078dd"
   stop-opacity="1"
   id="stop8" />
			<stop
   offset="0.79"
   stop-color="#0061c4"
   stop-opacity="1"
   id="stop10" />
			<stop
   offset="1"
   stop-color="#004dae"
   stop-opacity="1"
   id="stop12" />
		</linearGradient>
		<linearGradient
   id="grad0-10"
   x1="0"
   y1="219.41666"
   x2="10.247244"
   y2="219.41666"
   gradientTransform="scale(2.1664363,0.46158755)"
   gradientUnits="userSpaceOnUse">
			<stop
   offset="0"
   stop-color="#00315c"
   stop-opacity="1"
   id="stop15" />
			<stop
   offset="0.785"
   stop-color="#0080e5"
   stop-opacity="1"
   id="stop17" />
		</linearGradient>
		<linearGradient
   id="grad0-14"
   x1="0"
   y1="219.41666"
   x2="10.247244"
   y2="219.41666"
   gradientTransform="scale(2.1664363,0.46158755)"
   gradientUnits="userSpaceOnUse">
			<stop
   offset="0"
   stop-color="#00315c"
   stop-opacity="1"
   id="stop20" />
			<stop
   offset="0.785"
   stop-color="#0080e5"
   stop-opacity="1"
   id="stop22" />
		</linearGradient>
		<linearGradient
   id="grad0-18"
   x1="0"
   y1="0"
   x2="1"
   y2="0"
   gradientTransform="rotate(-90,0.5,0.5)">
			<stop
   offset="0"
   stop-color="#00315c"
   stop-opacity="1"
   id="stop25" />
			<stop
   offset="0.785"
   stop-color="#008af0"
   stop-opacity="1"
   id="stop27" />
		</linearGradient>
		<linearGradient
   id="grad0-25"
   x1="0"
   y1="0"
   x2="1"
   y2="0"
   gradientTransform="rotate(90,0.5,0.5)">
			<stop
   offset="0"
   stop-color="#00294f"
   stop-opacity="1"
   id="stop30" />
			<stop
   offset="0.705"
   stop-color="#005ba6"
   stop-opacity="1"
   id="stop32" />
			<stop
   offset="0.83"
   stop-color="#0457ac"
   stop-opacity="1"
   id="stop34" />
			<stop
   offset="1"
   stop-color="#0050b2"
   stop-opacity="1"
   id="stop36" />
		</linearGradient>
		<linearGradient
   id="grad0-32"
   x1="0"
   y1="219.41666"
   x2="10.247244"
   y2="219.41666"
   gradientTransform="scale(2.1664363,0.46158755)"
   gradientUnits="userSpaceOnUse">
			<stop
   offset="0"
   stop-color="#00315c"
   stop-opacity="1"
   id="stop39" />
			<stop
   offset="0.58"
   stop-color="#0e71c7"
   stop-opacity="1"
   id="stop41" />
			<stop
   offset="1"
   stop-color="#0a75d5"
   stop-opacity="1"
   id="stop43" />
		</linearGradient>
		<linearGradient
   id="grad0-36"
   x1="0"
   y1="219.41666"
   x2="10.247244"
   y2="219.41666"
   gradientTransform="scale(2.1664363,0.46158755)"
   gradientUnits="userSpaceOnUse">
			<stop
   offset="0"
   stop-color="#00315c"
   stop-opacity="1"
   id="stop46" />
			<stop
   offset="0.58"
   stop-color="#0e71c7"
   stop-opacity="1"
   id="stop48" />
			<stop
   offset="1"
   stop-color="#0a75d5"
   stop-opacity="1"
   id="stop50" />
		</linearGradient>
	<linearGradient
   inkscape:collect="always"
   xlink:href="#grad0-18"
   id="linearGradient4633"
   gradientTransform="scale(0.46266506,2.1613908)"
   x1="0"
   y1="38.845358"
   x2="10.201765"
   y2="38.845358"
   gradientUnits="userSpaceOnUse" /><linearGradient
   inkscape:collect="always"
   xlink:href="#grad0-18"
   id="linearGradient4635"
   gradientTransform="scale(0.46266506,2.1613908)"
   x1="0"
   y1="38.845358"
   x2="10.201765"
   y2="38.845358"
   gradientUnits="userSpaceOnUse" /><linearGradient
   inkscape:collect="always"
   xlink:href="#grad0-25"
   id="linearGradient4637"
   gradientTransform="scale(0.46266506,2.1613908)"
   x1="0"
   y1="38.845358"
   x2="10.201765"
   y2="38.845358"
   gradientUnits="userSpaceOnUse" /><linearGradient
   inkscape:collect="always"
   xlink:href="#grad0-25"
   id="linearGradient4639"
   gradientTransform="scale(0.46266506,2.1613908)"
   x1="0"
   y1="38.845358"
   x2="10.201765"
   y2="38.845358"
   gradientUnits="userSpaceOnUse" /></defs>
	<g
   id="g117"
   transform="translate(-15.300164,-15.2986)">
		<title
   id="title54">Page-1</title>
		<g
   id="group7605-1"
   transform="translate(15.3,-34.0157)">
			<title
   id="title56">Azure Spring Cloud</title>
			<g
   id="group7606-2">
				<title
   id="title58">Sheet.7606</title>
				<g
   id="shape7607-3">
					<title
   id="title60">Sheet.7607</title>
					<path
   d="M 26.77,76.09 H 0 V 49.32 H 26.77 Z M 4.72,71.36 H 22.05 V 54.04 H 4.72 Z m 51.97,4.73 H 29.92 V 49.32 H 56.69 Z M 34.65,71.36 H 51.97 V 54.04 H 34.65 Z m -7.88,34.65 H 0 V 79.24 H 26.77 Z M 4.72,101.28 H 22.05 V 83.96 H 4.72 Z m 51.97,4.73 H 29.92 V 79.24 H 56.69 Z M 34.65,101.28 H 51.97 V 83.96 H 34.65 Z"
   class="st1"
   id="path62"
   inkscape:connector-curvature="0"
   style="fill:url(#grad0-6);stroke:none;stroke-width:15.30000019;stroke-linecap:butt" />
				</g>
				<g
   id="shape7608-7"
   transform="translate(34.4882,-29.9213)">
					<title
   id="title65">Sheet.7608</title>
					<path
   d="m 22.2,101.28 v 4.73 H 0 v -4.73 z"
   class="st2"
   id="path67"
   inkscape:connector-curvature="0"
   style="fill:url(#grad0-10);stroke:none;stroke-width:15.30000019;stroke-linecap:butt" />
				</g>
				<g
   id="shape7609-11"
   transform="translate(0,-29.9213)">
					<title
   id="title70">Sheet.7609</title>
					<path
   d="m 0,106.01 v -4.73 h 22.2 v 4.73 z"
   class="st3"
   id="path72"
   inkscape:connector-curvature="0"
   style="fill:url(#grad0-14);stroke:none;stroke-width:15.30000019;stroke-linecap:butt" />
				</g>
				<g
   id="shape7610-15"
   transform="translate(22.0472,-34.6457)">
					<title
   id="title75">Sheet.7610</title>
					<path
   d="m 0,83.96 h 4.72 v 22.05 H 0 Z"
   class="st4"
   id="path77"
   inkscape:connector-curvature="0"
   style="fill:url(#linearGradient4633);stroke:none;stroke-width:15.30000019;stroke-linecap:butt" />
				</g>
				<g
   id="shape7611-19"
   transform="translate(29.9213,-34.6457)">
					<title
   id="title80">Sheet.7611</title>
					<path
   d="m 0,83.96 h 4.72 v 22.05 H 0 Z"
   class="st4"
   id="path82"
   inkscape:connector-curvature="0"
   style="fill:url(#linearGradient4635);stroke:none;stroke-width:15.30000019;stroke-linecap:butt" />
				</g>
				<g
   id="shape7612-22"
   transform="translate(29.9213)">
					<title
   id="title85">Sheet.7612</title>
					<path
   d="M 4.72,106.01 H 0 V 83.96 h 4.72 z"
   class="st5"
   id="path87"
   inkscape:connector-curvature="0"
   style="fill:url(#linearGradient4637);stroke:none;stroke-width:15.30000019;stroke-linecap:butt" />
				</g>
				<g
   id="shape7613-26"
   transform="translate(22.0472)">
					<title
   id="title90">Sheet.7613</title>
					<path
   d="M 4.72,106.01 H 0 V 83.96 h 4.72 z"
   class="st5"
   id="path92"
   inkscape:connector-curvature="0"
   style="fill:url(#linearGradient4639);stroke:none;stroke-width:15.30000019;stroke-linecap:butt" />
				</g>
				<g
   id="shape7614-29"
   transform="translate(34.4882,-22.0472)">
					<title
   id="title95">Sheet.7614</title>
					<path
   d="m 22.2,101.28 v 4.73 H 0 v -4.73 z"
   class="st6"
   id="path97"
   inkscape:connector-curvature="0"
   style="fill:url(#grad0-32);stroke:none;stroke-width:15.30000019;stroke-linecap:butt" />
				</g>
				<g
   id="shape7615-33"
   transform="translate(0,-22.0472)">
					<title
   id="title100">Sheet.7615</title>
					<path
   d="m 0,106.01 v -4.73 h 22.2 v 4.73 z"
   class="st7"
   id="path102"
   inkscape:connector-curvature="0"
   style="fill:url(#grad0-36);stroke:none;stroke-width:15.30000019;stroke-linecap:butt" />
				</g>
				<g
   id="shape7616-37"
   transform="translate(9.44882,-9.44882)">
					<title
   id="title105">Sheet.7616</title>
					<path
   d="m 37.8,86.8 c 0,-4.41 -1.26,-9.93 -3.47,-16.38 -0.47,1.26 -1.26,2.36 -1.89,3.31 C 28.82,70.26 24.09,68.21 18.9,68.21 8.5,68.21 0,76.72 0,87.11 c 0,10.39 8.5,18.9 18.9,18.9 10.39,0 18.9,-8.51 18.9,-18.9 z"
   class="st8"
   id="path107"
   inkscape:connector-curvature="0"
   style="fill:#5fb832;stroke:none;stroke-width:15.30000019;stroke-linecap:butt" />
				</g>
				<g
   id="shape7617-39"
   transform="translate(13.2283,-13.7008)">
					<title
   id="title110">Sheet.7617</title>
					<path
   d="m 30.39,99.87 c -4.72,6.14 -14.64,4.09 -20.94,4.41 0,0 -1.1,0 -2.21,0.15 l 0.95,-0.31 c 4.41,-1.58 6.61,-1.89 9.29,-3.31 5.2,-2.68 10.24,-8.34 11.18,-14.33 -1.89,5.83 -7.87,10.71 -13.23,12.6 -3.62,1.42 -10.39,2.68 -10.39,2.68 L 4.72,101.6 C 0.16,99.39 0,89.47 8.19,86.32 c 3.62,-1.41 7.09,-0.63 11.02,-1.57 4.25,-1.1 8.98,-4.1 11.03,-8.19 2.36,6.77 4.88,17.01 0.15,23.31 z m -26.61,6.14 a 1.575,1.575 -180 0 0 0,-3.15 1.575,1.575 -180 1 0 0,3.15 z"
   class="st9"
   id="path112"
   inkscape:connector-curvature="0"
   style="fill:#ffffff;stroke:none;stroke-width:15.30000019;stroke-linecap:butt" />
				</g>
			</g>
		</g>
	</g>
</svg>

<?xml version="1.0" encoding="UTF-8" standalone="no"?>
<!DOCTYPE svg PUBLIC "-//W3C//DTD SVG 1.1//EN" "http://www.w3.org/Graphics/SVG/1.1/DTD/svg11.dtd">
<!-- Generated by Microsoft Visio, SVG Export Azure Spring Cloud.svg Page-1 -->
<svg xmlns="http://www.w3.org/2000/svg" xmlns:xlink="http://www.w3.org/1999/xlink" xmlns:ev="http://www.w3.org/2001/xml-events"
		width="1.2124in" height="1.47234in" viewBox="0 0 87.2929 106.009" xml:space="preserve" color-interpolation-filters="sRGB"
		class="st10">
	<style type="text/css">
	<![CDATA[
		.st1 {fill:url(#grad0-6);stroke:none;stroke-linecap:butt;stroke-width:15.3}
		.st2 {fill:url(#grad0-10);stroke:none;stroke-linecap:butt;stroke-width:15.3}
		.st3 {fill:url(#grad0-14);stroke:none;stroke-linecap:butt;stroke-width:15.3}
		.st4 {fill:url(#grad0-18);stroke:none;stroke-linecap:butt;stroke-width:15.3}
		.st5 {fill:url(#grad0-25);stroke:none;stroke-linecap:butt;stroke-width:15.3}
		.st6 {fill:url(#grad0-32);stroke:none;stroke-linecap:butt;stroke-width:15.3}
		.st7 {fill:url(#grad0-36);stroke:none;stroke-linecap:butt;stroke-width:15.3}
		.st8 {fill:#5fb832;stroke:none;stroke-linecap:butt;stroke-width:15.3}
		.st9 {fill:#ffffff;stroke:none;stroke-linecap:butt;stroke-width:15.3}
		.st10 {fill:none;fill-rule:evenodd;font-size:12px;overflow:visible;stroke-linecap:square;stroke-miterlimit:3}
	]]>
	</style>

	<defs id="Patterns_And_Gradients">
		<linearGradient id="grad0-6" x1="0" y1="0" x2="1" y2="0" gradientTransform="rotate(90 0.5 0.5)">
			<stop offset="0" stop-color="#008bf1" stop-opacity="1"/>
			<stop offset="0.22" stop-color="#0086ec" stop-opacity="1"/>
			<stop offset="0.495" stop-color="#0078dd" stop-opacity="1"/>
			<stop offset="0.79" stop-color="#0061c4" stop-opacity="1"/>
			<stop offset="1" stop-color="#004dae" stop-opacity="1"/>
		</linearGradient>
		<linearGradient id="grad0-10" x1="0" y1="0" x2="1" y2="0" gradientTransform="rotate(0 0.5 0.5)">
			<stop offset="0" stop-color="#00315c" stop-opacity="1"/>
			<stop offset="0.785" stop-color="#0080e5" stop-opacity="1"/>
		</linearGradient>
		<linearGradient id="grad0-14" x1="0" y1="0" x2="1" y2="0" gradientTransform="rotate(-180 0.5 0.5)">
			<stop offset="0" stop-color="#00315c" stop-opacity="1"/>
			<stop offset="0.785" stop-color="#0080e5" stop-opacity="1"/>
		</linearGradient>
		<linearGradient id="grad0-18" x1="0" y1="0" x2="1" y2="0" gradientTransform="rotate(-90 0.5 0.5)">
			<stop offset="0" stop-color="#00315c" stop-opacity="1"/>
			<stop offset="0.785" stop-color="#008af0" stop-opacity="1"/>
		</linearGradient>
		<linearGradient id="grad0-25" x1="0" y1="0" x2="1" y2="0" gradientTransform="rotate(90 0.5 0.5)">
			<stop offset="0" stop-color="#00294f" stop-opacity="1"/>
			<stop offset="0.705" stop-color="#005ba6" stop-opacity="1"/>
			<stop offset="0.83" stop-color="#0457ac" stop-opacity="1"/>
			<stop offset="1" stop-color="#0050b2" stop-opacity="1"/>
		</linearGradient>
		<linearGradient id="grad0-32" x1="0" y1="0" x2="1" y2="0" gradientTransform="rotate(0 0.5 0.5)">
			<stop offset="0" stop-color="#00315c" stop-opacity="1"/>
			<stop offset="0.58" stop-color="#0e71c7" stop-opacity="1"/>
			<stop offset="1" stop-color="#0a75d5" stop-opacity="1"/>
		</linearGradient>
		<linearGradient id="grad0-36" x1="0" y1="0" x2="1" y2="0" gradientTransform="rotate(-180 0.5 0.5)">
			<stop offset="0" stop-color="#00315c" stop-opacity="1"/>
			<stop offset="0.58" stop-color="#0e71c7" stop-opacity="1"/>
			<stop offset="1" stop-color="#0a75d5" stop-opacity="1"/>
		</linearGradient>
	</defs>
	<g>
		<title>Page-1</title>
		<g id="group7432-1" transform="translate(15.3,-34.0157)">
			<title>Azure Spring Cloud</title>
			<g id="group7433-2">
				<title>Sheet.7433</title>
				<g id="shape7434-3">
					<title>Sheet.7434</title>
					<path d="M26.77 76.09 L0 76.09 L0 49.32 L26.77 49.32 L26.77 76.09 ZM4.72 71.36 L22.05 71.36 L22.05 54.04 L4.72
								 54.04 L4.72 71.36 ZM56.69 76.09 L29.92 76.09 L29.92 49.32 L56.69 49.32 L56.69 76.09 ZM34.65 71.36
								 L51.97 71.36 L51.97 54.04 L34.65 54.04 L34.65 71.36 ZM26.77 106.01 L0 106.01 L0 79.24 L26.77 79.24
								 L26.77 106.01 ZM4.72 101.28 L22.05 101.28 L22.05 83.96 L4.72 83.96 L4.72 101.28 ZM56.69 106.01 L29.92
								 106.01 L29.92 79.24 L56.69 79.24 L56.69 106.01 ZM34.65 101.28 L51.97 101.28 L51.97 83.96 L34.65
								 83.96 L34.65 101.28 Z" class="st1"/>
				</g>
				<g id="shape7435-7" transform="translate(34.4882,-29.9213)">
					<title>Sheet.7435</title>
					<path d="M22.2 101.28 L22.2 106.01 L0 106.01 L0 101.28 L22.2 101.28 Z" class="st2"/>
				</g>
				<g id="shape7436-11" transform="translate(-2.79776E-13,-29.9213)">
					<title>Sheet.7436</title>
					<path d="M0 106.01 L0 101.28 L22.2 101.28 L22.2 106.01 L0 106.01 Z" class="st3"/>
				</g>
				<g id="shape7437-15" transform="translate(22.0472,-34.6457)">
					<title>Sheet.7437</title>
					<path d="M0 83.96 L4.72 83.96 L4.72 106.01 L0 106.01 L0 83.96 Z" class="st4"/>
				</g>
				<g id="shape7438-19" transform="translate(29.9213,-34.6457)">
					<title>Sheet.7438</title>
					<path d="M0 83.96 L4.72 83.96 L4.72 106.01 L0 106.01 L0 83.96 Z" class="st4"/>
				</g>
				<g id="shape7439-22" transform="translate(29.9213,2.98428E-13)">
					<title>Sheet.7439</title>
					<path d="M4.72 106.01 L0 106.01 L0 83.96 L4.72 83.96 L4.72 106.01 Z" class="st5"/>
				</g>
				<g id="shape7440-26" transform="translate(22.0472,2.98428E-13)">
					<title>Sheet.7440</title>
					<path d="M4.72 106.01 L0 106.01 L0 83.96 L4.72 83.96 L4.72 106.01 Z" class="st5"/>
				</g>
				<g id="shape7441-29" transform="translate(34.4882,-22.0472)">
					<title>Sheet.7441</title>
					<path d="M22.2 101.28 L22.2 106.01 L0 106.01 L0 101.28 L22.2 101.28 Z" class="st6"/>
				</g>
				<g id="shape7442-33" transform="translate(-2.79776E-13,-22.0472)">
					<title>Sheet.7442</title>
					<path d="M0 106.01 L0 101.28 L22.2 101.28 L22.2 106.01 L0 106.01 Z" class="st7"/>
				</g>
				<g id="shape7443-37" transform="translate(9.44882,-9.44882)">
					<title>Sheet.7443</title>
					<path d="M37.8 86.8 C37.8 82.39 36.54 76.87 34.33 70.42 C33.86 71.68 33.07 72.78 32.44 73.73 C28.82 70.26 24.09
								 68.21 18.9 68.21 C8.5 68.21 0 76.72 0 87.11 C0 97.5 8.5 106.01 18.9 106.01 C29.29 106.01 37.8 97.5
								 37.8 87.11 L37.8 86.8 Z" class="st8"/>
				</g>
				<g id="shape7444-39" transform="translate(13.2283,-13.7008)">
					<title>Sheet.7444</title>
					<path d="M30.39 99.87 C25.67 106.01 15.75 103.96 9.45 104.28 C9.45 104.28 8.35 104.28 7.24 104.43 L8.19 104.12
								 C12.6 102.54 14.8 102.23 17.48 100.81 C22.68 98.13 27.72 92.47 28.66 86.48 C26.77 92.31 20.79 97.19
								 15.43 99.08 C11.81 100.5 5.04 101.76 5.04 101.76 L4.72 101.6 C0.16 99.39 0 89.47 8.19 86.32 C11.81
								 84.91 15.28 85.69 19.21 84.75 C23.46 83.65 28.19 80.65 30.24 76.56 C32.6 83.33 35.12 93.57 30.39
								 99.87 ZM3.78 106.01 A1.5748 1.5748 -180 0 0 3.78 102.86 A1.5748 1.5748 -180 1 0 3.78 106.01 Z"
							class="st9"/>
				</g>
			</g>
		</g>
	</g>
</svg>
